X:1
T:Zoan, 76.76 D
T:Zoan, 76.76 D
T:William Henry Havergal, 1845
T:Public Domain Courtesy of the Cyber Hymnal™
C:William Henry Havergal, 1845
Z:Public Domain
Z:Courtesy of the Cyber Hymnal™
%%score ( 1 2 ) ( 3 4 )
L:1/8
Q:1/4=110
M:4/4
K:Ab
V:1 treble 
V:2 treble 
V:3 bass 
V:4 bass 
V:1
 [CA]2 [Ec]3 [DB] A2 x | z [CA]4 [DA]2 x | [EA]2 [Fd]3 [Fc] [Fd]2 | [EB]2 [Ec]6 | %4
 [Ec]2 [EB]3 [FA] [EG]2 | [Ec]2 [=DB]4 E2 | [EA]2 [EG]2 [EA]2 [EF]2 | [=DF]2 E6 | %8
 [CE]2 [DF]3 [DF] [DF]2 | [DF]2 [EG]4 [EG]2 | [EG]2 [FA]3 [CA] [FB]2 | [EB]2 [Ec]6 | %12
 [Fc]2 [Fd]3 [Ec] [DB]2 | [=DA]2 [EG]4 [B,G]2 | [Ec]2 [CA]4 [B,B]2- | [B,B]2 [B,E]4 [EG]2- | %16
 [EG]2 [EA]6 |] %17
V:2
 x6 E3 | (G2 D) x5 | x8 | x8 | x8 | x6 E2 | x8 | x2 E6 | x8 | x8 | x8 | x8 | x8 | x8 | x8 | x8 | %16
 x8 |] %17
V:3
 [A,,E,]2 [A,,A,]3 [B,,G,] [C,A,]2 x | [E,B,]2 [F,A,]4 [D,F,]2 | %2
 [C,E,]2 [B,,B,]3 [F,=A,] [B,,B,]2 | [E,G,]2 [A,,A,]6 | A,2 G,2 z [E,B,]2 x | %5
 (A,G,) (F,G,A,B,) [C,G,]2 | [A,,C]2 [C,C]2 [A,,C]2 [B,,B,]2 | (A,B,) [E,G,]6 | %8
 [A,,A,]2 [D,A,]3 [D,A,] [B,,B,]2 | [B,,B,]2 [E,B,]4 [C,C]2 | [C,C]2 [F,C]3 [F,A,] [D,A,]2 | %11
 [E,G,]2 [A,,A,]6 | [F,=A,]2 [B,,B,]3 [C,A,] [D,B,]2 | F,2 [E,B,]4 [E,G,]2 | %14
 [C,G,]2 [F,A,]4 [D,F,]2- | [D,F,]2 [E,G,]4 [E,B,]2- | [E,B,]2 [A,,C]6 |] %17
V:4
 x9 | x8 | x8 | x8 | A,2 E,3 (B,2 =D,) | A,,2 B,,4 x2 | x8 | B,,2 x6 | x8 | x8 | x8 | x8 | x8 | %13
 F,2 x6 | x8 | x8 | x8 |] %17

